src/components/Token/assets/kucoin.svg

<svg width="24" height="24" viewBox="0 0 24 24" fill="none" xmlns="http://www.w3.org/2000/svg">
<g clip-path="url(#clip0)">
<path fill-rule="evenodd" clip-rule="evenodd" d="M9.04091 12L14.2139 17.3307L17.4789 13.9668C18.0555 13.3726 18.9909 13.3727 19.5675 13.9668C20.1441 14.561 20.1442 15.5246 19.5675 16.1186L15.2583 20.5585C14.6842 21.1499 13.7384 21.1445 13.1698 20.5585L6.95374 14.1532L6.9536 17.9611C6.9536 18.7971 6.2882 19.4829 5.47661 19.4829C4.66117 19.4829 4 18.8015 4 17.9613V6.03901C4 5.19889 4.66117 4.51744 5.47661 4.51744C6.29221 4.51744 6.9536 5.19907 6.9536 6.03901V9.84696L13.1698 3.44149C13.7384 2.85553 14.6842 2.85015 15.2583 3.44149L19.5675 7.88139C20.1442 8.47546 20.1441 9.43904 19.5675 10.0331C18.9909 10.6272 18.0555 10.6274 17.4789 10.0331L14.2139 6.66926L9.04091 12ZM14.0001 10.3636C14.8835 10.3636 15.6 11.0964 15.6 11.9999C15.6 12.9036 14.8835 13.6364 14.0001 13.6364C13.1165 13.6364 12.4 12.9036 12.4 11.9999C12.4 11.0964 13.1165 10.3636 14.0001 10.3636Z" fill="#7AD3FD"/>
</g>
<defs>
<clipPath id="clip0">
<rect width="16" height="18" fill="white" transform="translate(4 3)"/>
</clipPath>
</defs>
</svg>

<svg width="24" height="24" fill="none" xmlns="http://www.w3.org/2000/svg"><g clip-path="url(#clip0)"><path fill-rule="evenodd" clip-rule="evenodd" d="M9.04 12l5.174 5.33 3.265-3.363a1.446 1.446 0 012.088 0 1.555 1.555 0 010 2.152l-4.309 4.44a1.456 1.456 0 01-2.088 0l-6.216-6.406v3.808c0 .836-.666 1.522-1.477 1.522C4.66 19.483 4 18.802 4 17.96V6.04c0-.84.661-1.522 1.477-1.522.815 0 1.477.682 1.477 1.522v3.808l6.216-6.406a1.456 1.456 0 012.088 0l4.31 4.44a1.554 1.554 0 010 2.152 1.446 1.446 0 01-2.09 0L14.215 6.67 9.04 12zM14 10.364c.883 0 1.6.732 1.6 1.636 0 .904-.716 1.636-1.6 1.636-.883 0-1.6-.732-1.6-1.636 0-.904.716-1.636 1.6-1.636z" fill="#7AD3FD"/></g><defs><clipPath id="clip0"><path fill="#fff" transform="translate(4 3)" d="M0 0h16v18H0z"/></clipPath></defs></svg>
